!!!COM: Anton (Friedrich Wilhelm von) Webern
!!!OTL: [T412_Web-w8p4m33-43]
**kern	**dynam	**kern	**dynam	**kern	**dynam	**kern	**dynam
*grp:A	*grp:A	*grp:A	*grp:A	*grp:A	*grp:A	*grp:B	*grp:B
*part4	*part4	*part3	*part3	*part2	*part2	*part1	*part1
*staff4	*staff4	*staff3	*staff3	*staff2	*staff2	*staff1	*staff1
*I"Violoncello	*I"Violoncello	*I"Viola	*I"Viola	*I"Violin II	*I"Violin II	*I"Violin I	*I"Violin I
*I'Vc.	*	*I'Vla.	*	*I'Vln. II	*	*I'Vln. I	*
*clefF4	*	*clefC3	*	*clefG2	*	*clefG2	*
*k[]	*	*k[]	*	*k[]	*	*k[]	*
*C:	*	*C:	*	*C:	*	*C:	*
*M2/4	*	*M2/4	*	*M2/4	*	*M2/4	*
=33	=33	=33	=33	=33	=33	=33	=33
!	!	!	!	!	!	!LO:TX:t=P:problem: Tempo alterations should all be level on the same Horizontal Plane.	!
!	!	!	!	!	!	!LO:TX:a:B:t=poco rit. 	!
!	!	!	!	!	!	!LO:TX:t=[[quarter]=88]	!
!	!LO:DY:ed=brack	!	!LO:DY:ed=brack	!	!LO:DY:ed=brack	!LO:TX:a:t=[mit Dämpfer]	!LO:DY:ed=brack
2ryy	4ryy	4.ryy	4ryy	4.ryy	4ryy	8ffL])	pp
.	.	.	.	.	.	(8ggn	.
.	.	.	4ryy	.	4ryy	8ffn	>
.	.	8ryy	4ryy	8ryy	4ryy	[8eenJ	]
=34	=34	=34	=34	=34	=34	=34	=34
4ryy	.	2ryy	4ryy	2ryy	4ryy	8ee])	.
.	.	.	.	.	.	[4.ffn	pp > ]
4ryy	.	.	.	.	.	.	.
!!LO:REH:t=35
=35	=35	=35	=35	=35	=35	=35	=35
4ryy	.	2ryy	4ryy	2ryy	4ryy	8ff]	<
.	.	.	.	.	.	(4een	.
4ryy	.	.	.	.	.	.	.
.	.	.	.	.	.	[8ffn	[ >
=36	=36	=36	=36	=36	=36	=36	=36
4ryy	.	4ryy	.	4ryy	.	4ff])	.
!	!	!	!	!	!	!LO:TX:t=Tempo II ([quarter]=88)	!
!	!	!	!	!	!	!LO:TX:a:t=am Steg - - - - - - - - - - - - ┐	!
4ryy	.	4ryy	4ryy	4ryy	4ryy	8r	]
.	.	.	.	.	.	(8gg-X	ppp <
=37	=37	=37	=37	=37	=37	=37	=37
*M3/4	*	*M3/4	*	*M3/4	*	*M3/4	*
!	!	!LO:TX:a:t=am Steg - - ┐	!	!LO:TX:a:t=am Steg - - ┐	!	!	!
4%3ryy	.	4ryy	4ryy	4ryy	4ryy	8bb-XL	.
.	.	.	.	.	.	8ggnJ	[ >
.	.	4ryy	4ryy	4ryy	4ryy	4aan)	.
!	!	!	!	!LO:TX:a:t=pizz.	!	!	!
.	.	4ryy	.	8ryy	.	8r	]
.	.	.	.	8ryy	4ryy	(8bbb-X	ppp
=38	=38	=38	=38	=38	=38	=38	=38
*tremolo	*	*	*	*	*	*	*
*	*	*tremolo	*	*	*	*	*
!LO:TX:a:t=am Steg - - ┐	!	!LO:TX:a:t=am Steg - - ┐	!	!	!	!	!
32ryy	4ryy	32ryy	4ryy	8ryy	4ryy	8bbnL)	.
32ryy	.	32ryy	.	.	.	.	.
32ryy	.	32ryy	.	.	.	.	.
32ryy	.	32ryy	.	.	.	.	.
32ryy	.	32ryy	.	8ryy	4ryy	([8ccc#XJ	<
32ryy	.	32ryy	.	.	.	.	.
32ryy	.	32ryy	.	.	.	.	.
32ryy	.	32ryy	.	.	.	.	.
*	*	*Xtremolo	*	*	*	*	*
*Xtremolo	*	*	*	*	*	*	*
8ryy	.	8ryy	.	16ryy	.	16ccc#LL]	[ >
.	.	.	.	16ryy	4ryy	16ggnJJ)	.
16ryy	4ryy	16ryy	4ryy	8ryy	.	8r	]
!LO:TX:a:i:t=espress.	!	!	!	!	!	!	!
16ryy	4ryy	16ryy	4ryy	.	.	.	.
!	!	!LO:TX:a:i:t=espress.	!	!	!	!LO:TX:a:i:t=begleitend	!
16ryy	4ryy	16ryy	.	4ryy	.	(8.ccc#XL	ppp
16ryy	.	16ryy	.	.	.	.	.
8ryy	4ryy	8ryy	4ryy	.	.	.	.
.	.	.	.	.	.	16ggnJk)	.
=39	=39	=39	=39	=39	=39	=39	=39
4ryy	.	4ryy	.	4%3ryy	.	(8ggg#XL	.
.	.	.	.	.	.	8eeenJ	.
8ryy	4ryy	8ryy	4ryy	.	.	8.ggnL)	.
8ryy	.	8ryy	.	.	.	.	.
.	.	.	.	.	.	(16ggg#XJk	<
16ryy	4ryy	16ryy	4ryy	.	.	8eeenL	.
8ryy	4ryy	8ryy	4ryy	.	.	.	.
.	.	.	.	.	.	8ggnJ)	[
16ryy	.	16ryy	4ryy	.	.	.	.
!!LO:REH:t=40
=40	=40	=40	=40	=40	=40	=40	=40
4.ryy	4ryy	4.ryy	4ryy	4%3ryy	.	(8.ggg#XL	pp <
.	.	.	.	.	.	16eeenJk	.
.	.	.	.	.	.	8ggnL)	[
8ryy	4ryy	8ryy	4ryy	.	.	(8ggg#XJ	<
8ryy	4ryy	8ryy	4ryy	.	.	8.eeenL)	.
8ryy	4ryy	8ryy	4ryy	.	.	.	.
.	.	.	.	.	.	(16aaanJk	p [ >
=41	=41	=41	=41	=41	=41	=41	=41
8ryy	4ryy	8ryy	4ryy	4ryy	.	8.bb-XL)	.
8ryy	.	8ryy	.	.	.	.	.
.	.	.	.	.	.	(16gggnJk	] <
8ryy	4ryy	8ryy	4ryy	4ryy	.	8ggg-XL	.
8ryy	4ryy	8ryy	4ryy	.	.	8eee-XJ	.
!	!	!	!	!LO:TX:a:t=arco	!	!	!
8ryy	.	8ryy	.	8.ryy	.	8ggnL)	[
8ryy	4ryy	8ryy	4ryy	.	.	16r	.
.	.	.	.	16ryy	4ryy	(16gggnJk	mf
=42	=42	=42	=42	=42	=42	=42	=42
8ryy	4ryy	8ryy	4ryy	4ryy	.	4ggg-X	>
8ryy	.	8ryy	.	.	.	.	.
8ryy	4ryy	4ryy	4ryy	8ryy	.	8fffn)	]
8ryy	4ryy	.	.	8ryy	4ryy	8r	.
!	!	!	!	!	!	!LO:TX:a:t=Dämpfer ab	!
!	!	!	!	!	!	!LO:TX:a:B:t=accel. 	!
8ryy	.	8ryy	.	8ryy	.	4r	.
8ryy	4ryy	8ryy	4ryy	8ryy	4ryy	.	.
=43	=43	=43	=43	=43	=43	=43	=43
4ryy	.	4ryy	4ryy	8ryy	.	4%3r	.
.	.	.	.	8ryy	4ryy	.	.
8ryy	4ryy	8ryy	4ryy	8ryy	.	.	.
8ryy	.	4ryy	4ryy	8ryy	4ryy	.	.
8ryy	4ryy	.	.	8.ryy	.	.	.
8ryy	4ryy	8ryy	4ryy	.	.	.	.
.	.	.	.	16ryy	4ryy	.	.
=	=	=	=	=	=	=	=
*-	*-	*-	*-	*-	*-	*-	*-
!!!system-decoration: [(s1,s2,s3,s4)]
!!!RDF**kern: > = above
!!!RDF**kern: < = below
!!!EED: Daniel Wright
!!!EEV: 2021/07/29
!!!EED2: Gabriella Vici
!!!EEV2: 2022/02/09
